!!!!SEGMENT: pl-wn--mus-iii-63-545--001_wieniawski-henryk--gigue.krn
!!!cenid: 18xx:3810
!!!COM: Wieniawski, Henryk
!!!COM-rismID:
!!!CDT:
!!!CNT:
!!!OTL: Gigue
!!!PDT:
!!!AGN:
!!!SMS-siglum: PL-Wn
!!!SMS-shelfmark: Mus.III.63.545
!!!SMS-shelfwork: 001 W
!!!SMS-variant:
!!!SMS-altvar:
!!!NIFC-rismSourceID:
!!!NIFC-islandoraID:
!!!URL-pdf-islandora:
!!!URL-scan: https://polona.pl/item/gigue-op-23-et-fantaisie-orientale,NjkyOTMwMjM/0/#info:metadata @EN{Scan on Polona} @PL{Skany w portalu Polona}
!!!ONB-nifc:
!!!AIN: 1 violn
!!!key: e
**kern	**fing	**dynam
*I"Violon.	*	*
*mI"Violino	*	*
*Ivioln	*	*
*ICstr	*	*
*IGsolo	*	*
*clefG2	*	*
*k[f#]	*	*
*e:	*	*
*M4/4	*	*
*met(c)	*	*
*mmet(c)	*	*
!LO:TX:i:t=risoluto	!	!
!LO:TX:a:B:t=Allegro giusto ma moderato.	!	!
4bv\	.	f <
=1	=1	=1
4ee/ 4b/ 4e/ 4G/	0	.
4gg\	.	.
4ff#\ 4a\	.	.
4ee/ 4g/ 4A#X/	.	[[
=2	=2	=2
8dd#X/L 8f#/ 8B'/	.	>
8cc#X'/J	.	.
4b~\	.	]
8d#X^>/L	4	ff >
8c#X^>/J	.	.
4B^>/	.	]]
=3	=3	=3
4eee\ 4ee\ 4g\ 4G\	1 2 4	f <
4bb\	.	.
(>8ddd\L 8a\	.	.
8ccc\)	.	.
(8bb\ 8cc\	2 4	.
8aa\J)	.	[[
=4	=4	=4
8bb\L 8b\ 8e'\	.	>
8gg'\J	.	.
4ee~\	.	]
8b^>/L	3	ff >
8g^>/J	.	.
4e^>/	.	]]
=5	=5	=5
(4d#X'/	.	f <
4f#'/)	.	.
8ee/L 8b/ 8e/	1 1 0	.
8ff#/J	.	.
4gg\	.	.
=6	=6	=6
!LO:TX:a:t=Henri Wieniawski, Op.23.:mod=	!	!
!LO:MO:mod=!LO&colon;TX&colon;t=sul G	!	!
!LO:TX:b:t=4a	!	!
8f#/L	2	.
8g/J	.	.
4a/	.	.
8gg\L 8b\ 8d\ 8G\	1 2	.
8aa\J	.	.
4bb\	.	.
!!LO:LB:g=original
=7	=7	=7
(4A/	.	.
!	!	!LO:MO:null:mod=[
4ccc\ 4a\ 4e\)	1 0 4	.
(8bb\L (8cc\	.	.
8aa\)	.	.
(8gg\ 8a\	.	.
8ff#\J))	.	.
=8	=8	=8
(4ee/ 4a/ 4f#/ 4B/	.	ff
4cc\)	4	p
(8dd#X/L (8b/	.	>
8a/)	.	.
(8b/ 8g/	3 1	.
8f#/J))	.	]
=9	=9	=9
4ee/ 4b/ 4e/ 4G/	0	f <
4gg\	.	.
4ff#\ 4a\	.	.
4ee/ 4g/ 4A#X/	.	[
=10	=10	=10
8dd#X/L 8f#/ 8B'/	.	>
8cc#X'/J	.	.
4b~\	.	]
8d#X^>/L	4	ff >
8c#X^>/J	.	.
4B^>/	.	]]
=11	=11	=11
(4ee/ 4b/ 4e/ 4G#X'>/	.	f >
4bb'\)	1	.
((8eee\L	.	] p <
8ddd\)	.	.
(8ccc\ 8ee\	.	.
8bb\J))	.	[[
=12	=12	=12
8ccc\L 8aa'\	.	>
8bb'\J	.	.
4ccc~\	.	]
8c^>/L	3	ff >
8B^>/J	.	.
4c^>/	.	]]
!!LO:LB:g=original
=13	=13	=13
(4B'/	.	f
4d#X'/)	4	<
8ee\L 8b\ 8e\	.	.
8ff#\J	.	.
4gg\	.	.
=14	=14	=14
8dn/L	2	.
8e/J	.	.
!	!	!LO:MO:null:mod=[
4f#/	.	.
8gg\L 8b\ 8d\ 8G\	2	ff
8aa\J	1	.
4bb\	.	.
=15	=15	=15
*^	*	*
!LO:TX:a:i:t=ten.	!	!	!
((8ccc^\L	2rcyy	.	p
8bb\)	.	.	.
(8aa\	.	.	.
8gg\J))	.	.	.
(8ff#'/	((8r	.	.
8r	8ee\L)	.	.
8aa'/)	(8dd\	.	.
8rff	8cc\J))	.	.
=16	=16	=16	=16
*	*	*^	*
*	*	*above	*below	*
((8bb^/L	(8b'\	.	.	<
8aa/)	8r	.	.	.
(8gg/	8dd'\)	.	.	.
8ff#/J))	8r	.	.	.
(8ee'/	((8ee\L	0	4	.
8r	8dd\)	.	.	.
8gg'/)	(8cc\	.	.	.
8r	8b\J))	.	.	.
*	*	*v	*v	*
=17	=17	=17	=17
((8aa^/L	(8a'\	.	.
8gg/)	8r	.	.
(8ff#/	8cc'\)	.	.
8ee/J))	8r	.	.
(8dd#X'/	((8r	1	.
8r	8cc\L)	.	.
8ff#'/)	(8b\	.	.
!	!	!	!LO:MO:null:mod=[
8r	8a\J))	0	.
*v	*v	*	*
=18	=18	=18
4ee\ 4g\	3 4	mf
4gg\ 4b\ 4e\	.	<
8ff#\L 8b\ 8d#X\	2	.
8gg\J	2	.
4aa\	.	[[
!!LO:LB:g=original
=19	=19	=19
8gg\L 8b\ 8e\	.	f <
8aa\J	1	.
4bb\	.	[[
!	!	!LO:DY:rj
8ccc#X\L 8ee\ 8g\ 8G\	.	ff
8ddd#X\J	.	.
4eee\	o 4	.
=20	=20	=20
2r	.	.
8ev/L	3	>
8f#/J	.	.
4g/	o 4	]]
=21	=21	=21
4r	.	.
4ee/ 4b/ 4g/ 4Bu/	.	<
4ee/ 4a/ 4f#/ 4Bu/	.	.
4dd#X/ 4f#/ 4Bu/	.	[
=22	=22	=22
!	!	!LO:DY:rj
8e^>v/L	3	fff >
8d#X^>/J	.	.
8e^>/	.	.
8r	.	.
4r	.	]
8ee'u\L	2	p
8ff#'\J	.	.
=23||	=23||	=23||
*k[f#c#g#d#]	*	*
*E:	*	*
8ee~\L	.	<
((16ff#\L	.	.
16gg#\JJ	.	.
8aa^\L)	o 4	.
8ff#'\J)	3	.
8ee'\L	.	.
8cc#'\	2	.
8b'^M\	.	.
8a'\J	.	[
=24	=24	=24
8b'\L	.	>
8cc#'\J	.	.
8b~\L	.	.
((16cc#\L	.	.
16dd#\JJ	.	.
8ee^\L)	.	]
8cc#'\)	.	<
8b'\	.	.
8g#'\J	.	[[
!!LO:LB:g=original
=25	=25	=25
(8f#^>M/L	.	>
!LO:TX:a:i:t=leggiero	!	!
8e/)	.	.
(8d#'/	4	.
8c#'/J)	.	.
8B'/L	.	]
8e'/	.	<
8g#'/	.	.
8cc#'/J	.	[[
=26	=26	=26
8b'/L	.	>
8g#'/	.	.
(8f#^>M/	.	.
8e/J)	.	.
8g#/	.	]
8r	.	.
8ee'u\L	2	p
8ff#'\J	.	.
=27	=27	=27
8ee~\L	.	<
((16ff#\L	.	.
16gg#\JJ	.	.
8aa^\L)	o 4	.
8ff#'\J)	3	.
8ee'\L	.	.
8cc#'\	2	.
8b'^M\	.	.
8a'\J	.	[
=28	=28	=28
8b'\L	.	>
8cc#'\J	.	.
8b~\L	.	.
((16cc#\L	.	.
16dd#\JJ	.	.
8ee^\L)	.	]
8cc#'\)	.	<
8b'\	.	.
8g#'\J	.	[[
=29	=29	=29
(8f#^M/L	.	>
8e/)	.	.
!LO:TX:a:i:t=leggiero	!	!
(8d#'/	4	.
8c#'/J)	.	.
8B'/L	.	]
8e'/	.	<
8g#'/	.	.
8cc#'/J	.	[[
!!LO:LB:g=original
=30	=30	=30
8b'/L	.	>
8g#'/	.	.
(8f#^>M/	.	.
8e/J)	.	.
8g#/	.	]
8r	.	.
!!LO:TX:a:B:t=A
8ee'u\L	2	pp
8ff#'\J	.	.
=31	=31	=31
8ee~\L	.	<
((16ff#\L	.	.
16gg#\JJ	.	.
8aa^\L)	o 4	.
8ff#'\J)	3	.
8ee'\L	.	.
8cc#'\	.	.
8b'^M\	.	.
8a'\J	.	[[
=32	=32	=32
8b'\L	.	>
8cc#'\J	.	.
8b~\L	.	.
((16cc#\L	.	.
16dd#\JJ	.	.
8ee^\L)	.	]
8cc#'\)	.	<
8b'\	.	.
8g#'\J	.	[[
=33	=33	=33
(8f#^>M/L	.	>
8e/)	.	.
(8d#'/	4	.
8c#'/J)	.	.
8B'/L	.	]
8e'/	.	<
8g#'/	.	.
8cc#'/J	.	[[
=34	=34	=34
8b'/L	.	>
8g#'/	.	.
(8f#^>M/	.	.
8e/J)	.	.
8g#/	.	]
8r	.	.
8ee'u\L	2	<
8ff#'\J	.	.
!!LO:LB:g=original
=35	=35	=35
8ee~\L	.	.
((16ff#\L	.	.
16gg#\JJ	.	.
8aa^\L)	o 4	.
8ff#'\J)	3	.
8ee'\L	.	.
8cc#'\	2	.
8b'^M\	.	.
8a'\J	.	[
=36	=36	=36
8b'\L	.	>
8cc#'\J	.	.
8b~\L	.	.
((16cc#\L	.	.
16dd#\JJ	.	.
8ee^\L)	.	]
8cc#'\)	.	<
8b'\	.	.
8g#'\J	.	[[
=37	=37	=37
(8f#^>M/L	.	>
8e/)	.	.
(8d#'/	4	.
8c#'/J)	.	.
8B'/L	.	]
8e'/	.	<
8g#'/	.	.
8cc#'/J	.	[[
=38	=38	=38
8b'/L	.	>
8g#'/	.	.
(8f#^>M/	.	.
8e/J)	.	.
8e/	.	.
8r	.	]
8e'u/L	.	p
8f#'/J	.	.
=39	=39	=39
8e~/L	.	<
((16f#/L	.	.
16g#/JJ	.	.
8a^/L)	.	.
8f#'/J)	.	.
!	!	!LO:MO:null:mod=[
8b'/L	.	.
8g#'/	.	.
8cc#'/	.	.
8a'/J	.	.
!!LO:LB:g=original
=40	=40	=40
8b'\L	.	.
8cc#'\J	.	.
8b~\L	.	.
((16cc#\L	.	.
16dd#\JJ	.	.
8ee^\L)	.	.
8cc#'\)	.	.
8ff#'\	.	.
8dd#'\J	.	.
=41	=41	=41
8gg#'\L	.	.
8ee'\	.	.
8ff#'\	.	.
8gg#'\J	.	.
8ff#'\L	.	.
(16gg#\L	.	.
16aa#X\JJ	.	.
8bb^\L)	.	.
(8gg#\J	.	.
=42	=42	=42
8ff#\L)	.	.
8dd#'\	.	.
8cc#'^M\	.	.
8b'\J	.	.
8dd#'\	.	f
8r	.	.
!!LO:TX:a:B:t=B
8e'u/L	.	p
8f#'/J	.	.
=43	=43	=43
8e~/L	.	<
((16f#/L	.	.
16g#/JJ	.	.
8a^>/L)	.	.
8f#'/J)	.	.
8b'/L	.	[
8g#'/	.	.
8cc#'/	.	.
8a'/J	.	.
=44	=44	=44
8b'\L	.	.
8cc#'\J	.	.
8b~\L	.	.
((16cc#\L	.	.
16dd#\JJ	.	.
8ee^\L)	.	.
8cc#'\)	.	.
8ff#'\	.	.
8dd#'\J	.	.
!!LO:LB:g=original
=45	=45	=45
8gg#'\L	.	.
8ee'\	.	.
8ff#'\	.	.
8gg#'\J	.	.
8ff#'\L	.	.
(16gg#\L	.	.
16aa#X\JJ	.	.
8bb^\L)	.	.
(8gg#\J	.	.
=46	=46	=46
8ff#\L)	.	.
8dd#'\	.	.
8cc#'^M\	.	.
8b'\J	.	.
8dd#'\	.	f
8r	.	.
8ee'u\L	2	p
8ff#'\J	.	.
=47	=47	=47
8ee~\L	.	<
((16ff#\L	.	.
16gg#\JJ	.	.
8aa^\L)	o 4	.
8ff#'\J)	3	.
8ee'\L	.	.
8cc#'\	2	.
8b'^M\	.	.
8a'\J	.	[[
=48	=48	=48
8b'\L	.	>
8cc#'\J	.	.
8b~\L	.	.
((16cc#\L	.	.
16dd#\JJ	.	.
8ee^\L)	.	]
8cc#'\)	.	<
8b'\	.	.
8g#'\J	.	[[
=49	=49	=49
(8f#^>M/L	.	>
8e/)	.	.
(8d#'/	.	.
8c#'/J)	.	.
8B'/L	.	]
8e'/	.	<
8g#'/	.	.
8cc#'/J	.	[[
!!LO:PB:g=original
=50	=50	=50
8b'/L	.	>
8g#'/	.	.
(8f#^>M/	.	.
8e/J)	.	.
8g#'/	.	]
8r	.	.
8ee'u\L	2	mf
8ff#'\J	.	.
=51	=51	=51
8ee~\L	.	<
((16ff#\L	.	.
16gg#\JJ	.	.
8aa^\L)	o 4	.
8ff#'\J)	3	.
8ee'\L	.	.
8cc#'\	2	.
8b'^M\	.	.
8a'\J	.	.
=52	=52	=52
8ff#~\L	.	.
((16gg#\L	.	.
16aa\JJ	.	.
8bb^\L)	.	.
8gg#'\J)	.	.
8ff#'\L	.	.
8ee#X'\	1	.
!LO:TX:t=P:problem:brak kasownika nad mordentem	!	!
8ddn'^M\	.	.
!	!	!LO:MO:null:mod=[
8cc#'\J	.	.
=53	=53	=53
8gg#~\L	.	f
(16aa\L	1	<
16bb\JJ	.	.
8ccc#^\L)	.	.
8aa'\J	3	.
8ff#~\L	.	.
(16gg#\L	.	.
16aa\JJ	.	.
8bb^\L)	.	.
8gg#'\J	.	.
=54	=54	=54
8ee~\L	.	.
(16ee\L	.	.
16ff#\JJ	.	.
8gg#^\L)	.	.
8ee'\J	.	.
8cc#~\L	.	.
(16cc#\L	.	.
16dd#X\JJ	.	.
8ee^\L)	.	.
!	!	!LO:MO:null:mod=[
8a#X'\J	.	.
!!LO:LB:g=original
=55	=55	=55
!!LO:TX:a:B:t=C
8b~\L	.	ff
(16cc#\L	.	.
16dd#\JJ	.	.
8ee^\L)	.	.
8cc#'\J	.	.
8dd#'\L	.	.
8b'\	.	.
8cc#'\	.	.
8a#X'\J	.	.
=56	=56	=56
8b'\L	.	.
8cc#'\J	.	.
8b~\L	.	.
(16cc#\L	.	.
16dd#\JJ	.	.
8ee^\L)	.	.
8cc#'\	.	.
8dd#'\	.	.
8a#X'\J	.	.
=57	=57	=57
8b~\L	.	.
(16cc#\L	.	.
16dd#\JJ	.	.
8ee^\L)	.	.
8cc#'\J	.	.
8dd#'\L	.	.
8b'\	.	.
8cc#'\	.	.
8a#X'\J	.	.
=58	=58	=58
8b'\L	.	.
8cc#'\J	.	.
8b~\L	.	.
(16cc#\L	.	.
16dd#\JJ	.	.
8ee^\L)	.	.
8cc#'\	.	.
8dd#'\	.	.
8a#X'\J	.	.
=59	=59	=59
8b~\L	.	.
(16cc#\L	.	.
16dd#\JJ	.	.
8ee^\L)	.	.
8cc#'\J	.	.
8dd#~\L	.	.
(16ee\L	.	.
16ff#\JJ	.	.
8ggn^\L)	.	.
8ee'\J	.	.
!!LO:LB:g=original
=60	=60	=60
8ff#~\L	.	.
(16ggn\L	.	.
16aa\JJ	.	.
8bb^\)	.	.
8r	.	.
4r	.	.
4bv\	.	f
=61||	=61||	=61||
*k[f#]	*	*
*e:	*	*
!LO:TX:a:i:t=risoluto	!	!
!LO:TX:a:B:t=Tempo I.	!	!
4ee/ 4b/ 4e/ 4G/	0	<
4gg\	.	.
4ff#\ 4a\	.	.
4ee/ 4g/ 4A#X/	.	[[
=62	=62	=62
8dd#X/L 8f#/ 8B'/	.	>
8cc#X'/J	.	.
4b~\	.	]
8d#X^>/L	4	ff >
8c#X^>/J	.	.
4B^>/	.	]]
=63	=63	=63
4eee\ 4ee\ 4g\ 4G\	1 2 4	f <
4bb\	.	.
(8ddd\L 8a\	.	.
8ccc\)	.	.
(8bb\ 8cc\	2 4	.
8aa\J)	.	[[
=64	=64	=64
8bb\L 8b\ 8e'\	.	>
8gg'\J	.	.
4ee~\	.	]
8b^>/L	3	ff >
8g^>/J	.	.
4e^>/	.	]]
=65	=65	=65
(4d#X'/	.	f
4f#'/)	.	<
8ee\L 8b\ 8e\	1 1 0	.
8ff#\J	.	.
4gg\	.	.
!!LO:LB:g=original
=66	=66	=66
!LO:MO:mod=!LO&colon;TX&colon;t=sul G	!	!
!LO:TX:b:t=4a	!	!
8f#/L	2	.
8g/J	.	.
4a/	.	.
8gg/L 8b/ 8d/ 8G/	1 2	.
8aa/J	.	.
4bb\	.	.
=67	=67	=67
(4A/	.	.
4ccc\ 4a\ 4e\)	1 0 4	.
(8bb\L (8cc\	.	.
8aa\)	.	.
!	!	!LO:MO:null:mod=[
(8gg\ 8a\	.	.
8ff#\J))	.	.
=68	=68	=68
(4ee/ 4a/ 4f#/ 4B/	.	ff
4cc\)	4	p
(8dd#X/L (8b/	.	>
8a/)	.	.
(8b/ 8g/	3 1	.
8f#/J))	.	]]
=69	=69	=69
4ee/ 4b/ 4e/ 4G/	0	f <
4gg\	.	.
4ff#\ 4cc\ 4a\	.	.
4ee\ 4cc#X\ 4g\	.	[
=70	=70	=70
8dd#X/L 8f#/ 8B'/	.	>
8cc#X'/J	.	.
4b~\	.	]
8d#X^>/L	.	ff
8c#X^>/J	.	.
4B^>/	.	.
=71	=71	=71
(4ee/ 4b/ 4e/ 4G#X'/	.	>
4bb'\)	1	]
((8eee\L	.	p <
8ddd\)	.	.
(8ccc\ 8ee\	.	.
8bb\J))	.	[[
=72	=72	=72
8ccc\L 8aa'\	.	>
8bb'\J	.	.
4ccc~\	.	]
8c^>/L	3	ff >
8B^>/J	.	.
4c^>/	.	]]
!!LO:LB:g=original
=73	=73	=73
!!LO:TX:a:B:t=D
(4c'/	1	p
!LO:MO:mod=!LO&colon;TX&colon;t=sul G	!	!
!LO:TX:b:t=4a	!	!
4e'/)	1	.
8fn/L	.	.
8g/J	.	.
4a/	.	.
=74	=74	=74
8B/L	2	.
8c#X/J	1	.
4d#X/	.	.
!LO:MO:mod=!LO&colon;TX&colon;t=sul G	!	!
!LO:TX:b:t=4a	!	!
(4e'/	2	.
4g'/)	.	.
=75	=75	=75
4cccn\ 4gg\ 4a\	1 3 2	mp
4eee\	.	.
8dn/L	2	<
8e/J	.	.
4f#/	.	.
=76	=76	=76
8bb\L 8ff#\ 8g\	.	.
8ccc\J	.	.
4ddd\	.	.
4c/	2	.
4e/	.	.
=77	=77	=77
4aa\ 4ee\ 4f#\	.	.
4ccc\	.	.
8B/L	2	.
8c#X/J	.	.
!	!	!LO:MO:null:mod=[
4d#X/	.	.
=78	=78	=78
4ee/ 4g/ 4e/	.	mf
4gg\	.	<
8ff#\L 8b\ 8d#X\	2	.
8gg\J	2	.
4aa\	.	[[
=79	=79	=79
8gg\L 8b\ 8e\	.	f <
8aa\J	1	.
4bb\	.	[
8ccc#X\L 8ee\ 8g\ 8G\	.	ff
8ddd#X\J	.	.
4eee\	o	.
!!LO:LB:g=original
=80	=80	=80
2r	.	.
8ev/L	3	>
8f#/J	.	.
4g/	o 4	]]
=81	=81	=81
4r	.	.
4ee/ 4b/ 4g/ 4Bu/	.	<
4ee/ 4a/ 4f#/ 4Bu/	.	.
4dd#X/ 4f#/ 4Bu/	.	[
=82	=82	=82
8e^>v/L	3	fff >
8d#X^>/J	.	.
4e^>/	.	.
4r	.	]
8ee'u\L	2	p
8ff#'\J	.	.
=83||	=83||	=83||
*k[f#c#g#d#]	*	*
*E:	*	*
8ee~\L	.	<
((16ff#\L	.	.
16gg#\JJ	.	.
8aa^\L)	o 4	.
8ff#'\J)	3	.
8ee'\L	.	.
8cc#'\	2	.
8b'^M\	.	.
8a'\J	.	[[
=84	=84	=84
8b'\L	.	>
8cc#'\J	.	.
8b~\L	.	.
((16cc#\L	.	.
16dd#\JJ	.	.
8ee^\L)	.	]
8cc#'\)	.	<
8b'\	.	.
8g#'\J	.	[[
=85	=85	=85
(8f#^>M/L	.	>
!LO:TX:a:i:t=leggiero	!	!
8e/)	.	.
(8d#'/	4	.
8c#'/J)	.	.
8B'/L	.	]
8e'/	.	<
8g#'/	.	.
8cc#'/J	.	[[
!!LO:LB:g=original
=86	=86	=86
8b'/L	.	>
8g#'/	.	.
(8f#^>M/	.	.
8e/J)	.	.
8g#/	.	]
8r	.	.
8ee'u\L	2	<
8ff#'\J	.	.
=87	=87	=87
8ee~\L	.	.
((16ff#\L	.	.
16gg#\JJ	.	.
8aa^\L)	o 4	.
8ff#'\J)	3	.
8ee'\L	.	.
8cc#'\	2	.
8b'^M\	.	.
8a'\J	.	[[
=88	=88	=88
8b'\L	.	>
8cc#'\J	.	.
8b~\L	.	.
((16cc#\L	.	.
16dd#\JJ	.	.
8ee^\L)	.	]
8cc#'\)	.	<
8b'\	.	.
8g#'\J	.	[[
=89	=89	=89
(8f#^>M/L	.	>
8e/)	.	.
!LO:TX:a:i:t=leggiero	!	!
(8d#'/	4	.
8c#'/J)	.	.
8B'/L	.	]
8e'/	.	<
8g#'/	.	.
8cc#'/J	.	[[
=90	=90	=90
8b'/L	.	>
8g#'/	.	.
(8f#^>M/	.	.
8e/J)	.	.
8g#/	.	]
8r	.	.
!!LO:TX:a:B:t=E
8e'u/L	.	p
8f#'/J	.	.
!!LO:LB:g=original
=91	=91	=91
8e~/L	.	<
((16f#/L	.	.
16g#/JJ	.	.
8a^>/L)	.	.
8f#'/J)	.	.
!	!	!LO:MO:null:mod=[
8b'/L	.	.
8g#'/	.	.
8cc#'/	.	.
8a'/J	.	.
=92	=92	=92
8b'\L	.	.
8cc#'\J	.	.
8b~\L	.	.
((16cc#\L	.	.
16dd#\JJ	.	.
8ee^\L	.	.
8cc#'\)	.	.
8ff#'\)	.	.
8dd#'\J	.	.
=93	=93	=93
8gg#'\L	.	.
8ee'\	.	.
8ff#'\	.	.
8gg#'\J	.	.
8ff#'\L	.	.
(16gg#\L	.	.
16aa#X\JJ	.	.
8bb^\L)	.	.
(8gg#\J	.	.
=94	=94	=94
8ff#\L)	.	.
8dd#'\	.	.
8cc#'^M\	.	.
8b'\J	.	.
8dd#'\	.	f
8r	.	.
8e'u/L	.	p
8f#'/J	.	.
=95	=95	=95
8e~/L	.	<
((16f#/L	.	.
16g#/JJ	.	.
8a^>/L)	.	.
8f#'/J)	.	.
!	!	!LO:MO:null:mod=[
8b'/L	.	.
8g#'/	.	.
8cc#'/	.	.
8a'/J	.	.
!!LO:LB:g=original
=96	=96	=96
8b'\L	.	.
8cc#'\J	.	.
8b~\L	.	.
((16cc#\L	.	.
16dd#\JJ	.	.
8ee^\L)	.	.
8cc#'\)	.	.
8ff#'\	.	.
8dd#'\J	.	.
=97	=97	=97
8gg#'\L	.	.
8ee'\	.	.
8ff#'\	.	.
8gg#'\J	.	.
8ff#'\L	.	.
(16gg#\L	.	.
16aa#X\JJ	.	.
8bb^\L)	.	.
(8gg#\J	.	.
=98	=98	=98
8ff#\L)	.	.
8dd#'\	.	.
8cc#'^M\	.	.
8b'\J	.	.
8dd#'\	.	f
8r	.	.
!!LO:TX:a:B:t=F
8ee'u\L	2	p
8ff#'\J	.	.
=99	=99	=99
8ee~\L	.	<
((16ff#\L	.	.
16gg#\JJ	.	.
8aa^\L)	o 4	.
8ff#'\J)	3	.
8ee'\L	.	.
8cc#'\	2	.
8b'^M\	.	.
8a'\J	.	[
=100	=100	=100
8b'\L	.	>
8cc#'\J	.	.
8b~\L	.	.
((16cc#\L	.	.
16dd#\JJ	.	.
8ee^\L)	.	]
8cc#'\)	.	<
8b'\	.	.
8g#'\J	.	[
!!LO:LB:g=original
=101	=101	=101
(8f#^>M/L	.	>
8e/)	.	.
(8d#'/	.	.
8c#'/J)	.	.
8B'/L	.	]
8e'/	.	<
8g#'/	.	.
8cc#'/J	.	[[
=102	=102	=102
8b'/L	.	>
8g#'/	.	.
(8f#^>M/	.	.
8e/J)	.	.
8g#/	.	]
8r	.	.
!	!	!LO:DY:rj
8ee'u\L	2	mf
8ff#'\J	.	.
=103	=103	=103
!LO:TX:a:i:t=allargando	!	!
8ee~\L	.	<
((16ff#\L	.	.
16gg#\JJ	.	.
8aa^\L)	o 4	.
8ff#'\J)	3	.
8ee'\L	.	.
8cc#'\	2	.
8b'^M\	.	.
8a'\J	.	[
=104	=104	=104
8b'\L	.	.
8cc#'\J	.	.
8b~\L	.	.
((16cc#\L	.	.
16dd#\JJ	.	.
8ee^\L)	.	.
8cc#'\)	.	.
8b'\	.	.
8g#'\J	.	.
=105	=105	=105
(8f#^>M/L	.	.
8e/)	.	.
(8d#'/	.	.
8c#'/J)	.	.
8B~/L	.	.
8e~/	.	.
8g#~/	.	.
!LO:TX:a:i:t=molto rit.	!	!
8b~/J	.	.
=106	=106	=106
8cc#~/L	.	f <
8a~/	.	.
8f#~/	.	.
8dd#~/J	.	[
4ee/ 4b/ 4e/ 4G#^/	.	ff
4r	.	.
==	==	==
*-	*-	*-
!!!ENC: Solarz Mateusz
!!!END: 2022-05-12
!!!RDF**kern: > = above
!!!RDF**kern: < = below
!!!RDF**dynam: < = cresc.
!!!filter-modern: autostem -r | shed -e "s/TX(.*):t=P:/tx$1:t=P:/LG" | shed -e "s/LO:DY:(a|b|rj)/LO:dy:$1/L" | modori -m |
!!!EED: Andrzej Borzym
!!!EEV: 2022-05-22
!!!ENC-modern: Leszek Kubiak
!!!END-modern: 2022-07-20
